src/_img/faster-class-features/private-methods-performance.svg

<svg viewBox="0 0 2462 1329" xmlns="http://www.w3.org/2000/svg" xmlns:xlink="http://www.w3.org/1999/xlink" overflow="hidden"><defs><clipPath id="clip0"><rect x="1640" y="481" width="2462" height="1329"/></clipPath><clipPath id="clip1"><rect x="1645" y="483" width="2457" height="1327"/></clipPath><clipPath id="clip2"><rect x="1936" y="743" width="1525" height="976"/></clipPath><clipPath id="clip3"><rect x="1936" y="743" width="1525" height="976"/></clipPath><clipPath id="clip4"><rect x="1936" y="743" width="1525" height="976"/></clipPath><clipPath id="clip5"><rect x="1936" y="743" width="1525" height="976"/></clipPath><clipPath id="clip6"><rect x="1645" y="483" width="2457" height="1327"/></clipPath><clipPath id="clip7"><rect x="1645" y="483" width="2457" height="1327"/></clipPath><clipPath id="clip8"><rect x="1645" y="483" width="2457" height="1327"/></clipPath><clipPath id="clip9"><rect x="1645" y="483" width="2457" height="1327"/></clipPath><clipPath id="clip10"><rect x="1645" y="483" width="2457" height="1327"/></clipPath><clipPath id="clip11"><rect x="1645" y="483" width="2457" height="1327"/></clipPath><clipPath id="clip12"><rect x="1645" y="483" width="2457" height="1327"/></clipPath><clipPath id="clip13"><rect x="1645" y="483" width="2457" height="1327"/></clipPath><clipPath id="clip14"><rect x="1645" y="483" width="2457" height="1327"/></clipPath><clipPath id="clip15"><rect x="1645" y="483" width="2457" height="1327"/></clipPath><clipPath id="clip16"><rect x="1645" y="483" width="2457" height="1327"/></clipPath><clipPath id="clip17"><rect x="1645" y="483" width="2457" height="1327"/></clipPath><clipPath id="clip18"><rect x="1645" y="483" width="2457" height="1327"/></clipPath><clipPath id="clip19"><rect x="1645" y="483" width="2457" height="1327"/></clipPath><clipPath id="clip20"><rect x="1645" y="483" width="2457" height="1327"/></clipPath><clipPath id="clip21"><rect x="1645" y="483" width="2457" height="1327"/></clipPath><clipPath id="clip22"><rect x="1645" y="483" width="2457" height="1327"/></clipPath><clipPath id="clip23"><rect x="1645" y="483" width="2457" height="1327"/></clipPath><clipPath id="clip24"><rect x="1645" y="483" width="2457" height="1327"/></clipPath><clipPath id="clip25"><rect x="1645" y="483" width="2457" height="1327"/></clipPath><clipPath id="clip26"><rect x="1645" y="483" width="2457" height="1327"/></clipPath><clipPath id="clip27"><rect x="1645" y="483" width="2457" height="1327"/></clipPath><clipPath id="clip28"><rect x="1645" y="483" width="2458" height="1328"/></clipPath><clipPath id="clip29"><rect x="1645" y="483" width="2458" height="1328"/></clipPath><clipPath id="clip30"><rect x="1645" y="483" width="2458" height="1328"/></clipPath><clipPath id="clip31"><rect x="1645" y="483" width="2458" height="1328"/></clipPath><clipPath id="clip32"><rect x="1645" y="483" width="2458" height="1328"/></clipPath><clipPath id="clip33"><rect x="1645" y="483" width="2458" height="1328"/></clipPath><clipPath id="clip34"><rect x="1645" y="483" width="2458" height="1328"/></clipPath></defs><g clip-path="url(#clip0)" transform="translate(-1640 -481)"><g clip-path="url(#clip1)"><path d="M1936.5 1554.55 3457.5 1554.55M1936.5 1392.55 3457.5 1392.55M1936.5 1230.54 3457.5 1230.54M1936.5 1068.54 3457.5 1068.54M1936.5 905.53 3457.5 905.53M1936.5 743.5 3457.5 743.5" stroke="#D9D9D9" stroke-width="3.4375" stroke-linecap="butt" stroke-linejoin="round" stroke-miterlimit="10" stroke-opacity="1" fill="none" fill-rule="nonzero"/></g><g clip-path="url(#clip2)"><path d="M2041.07 870.029 2179.07 870.029 2179.07 1716 2041.07 1716ZM2801.09 820.027 2939.1 820.027 2939.1 1716 2801.09 1716Z" fill="#4472C4" fill-rule="nonzero" fill-opacity="1"/></g><g clip-path="url(#clip3)"><path d="M2179.07 1243.04 2317.08 1243.04 2317.08 1716 2179.07 1716ZM2939.1 868.029 3077.1 868.029 3077.1 1716 2939.1 1716Z" fill="#ED7D31" fill-rule="nonzero" fill-opacity="1"/></g><g clip-path="url(#clip4)"><path d="M2317.08 1163.04 2455.08 1163.04 2455.08 1716 2317.08 1716ZM3077.1 1132.04 3216.11 1132.04 3216.11 1716 3077.1 1716Z" fill="#A5A5A5" fill-rule="nonzero" fill-opacity="1"/></g><g clip-path="url(#clip5)"><path d="M2455.08 1399.05 2594.08 1399.05 2594.08 1716 2455.08 1716ZM3216.11 1230.04 3354.11 1230.04 3354.11 1716 3216.11 1716Z" fill="#FFC000" fill-rule="nonzero" fill-opacity="1"/></g><g clip-path="url(#clip6)"><path d="M0 0 0.000360892 973" stroke="#D9D9D9" stroke-width="3.4375" stroke-linecap="butt" stroke-linejoin="round" stroke-miterlimit="10" stroke-opacity="1" fill="none" fill-rule="evenodd" transform="matrix(1 0 0 -1 1936.5 1716.5)"/></g><g clip-path="url(#clip7)"><path d="M1936.5 1716.5 3457.5 1716.5" stroke="#D9D9D9" stroke-width="3.4375" stroke-linecap="butt" stroke-linejoin="round" stroke-miterlimit="10" stroke-opacity="1" fill="none" fill-rule="evenodd"/></g><g clip-path="url(#clip8)"><text fill="#595959" fill-opacity="1" font-family="Arial,Arial_MSFontService,sans-serif" font-style="normal" font-variant="normal" font-weight="400" font-stretch="normal" font-size="41" text-anchor="start" direction="ltr" writing-mode="lr-tb" unicode-bidi="normal" text-decoration="none" transform="matrix(1 0 0 1 1878.55 1728)">0</text></g><g clip-path="url(#clip9)"><text fill="#595959" fill-opacity="1" font-family="Arial,Arial_MSFontService,sans-serif" font-style="normal" font-variant="normal" font-weight="400" font-stretch="normal" font-size="41" text-anchor="start" direction="ltr" writing-mode="lr-tb" unicode-bidi="normal" text-decoration="none" transform="matrix(1 0 0 1 1786.79 1566)">20000</text></g><g clip-path="url(#clip10)"><text fill="#595959" fill-opacity="1" font-family="Arial,Arial_MSFontService,sans-serif" font-style="normal" font-variant="normal" font-weight="400" font-stretch="normal" font-size="41" text-anchor="start" direction="ltr" writing-mode="lr-tb" unicode-bidi="normal" text-decoration="none" transform="matrix(1 0 0 1 1786.79 1404)">40000</text></g><g clip-path="url(#clip11)"><text fill="#595959" fill-opacity="1" font-family="Arial,Arial_MSFontService,sans-serif" font-style="normal" font-variant="normal" font-weight="400" font-stretch="normal" font-size="41" text-anchor="start" direction="ltr" writing-mode="lr-tb" unicode-bidi="normal" text-decoration="none" transform="matrix(1 0 0 1 1786.79 1242)">60000</text></g><g clip-path="url(#clip12)"><text fill="#595959" fill-opacity="1" font-family="Arial,Arial_MSFontService,sans-serif" font-style="normal" font-variant="normal" font-weight="400" font-stretch="normal" font-size="41" text-anchor="start" direction="ltr" writing-mode="lr-tb" unicode-bidi="normal" text-decoration="none" transform="matrix(1 0 0 1 1786.79 1080)">80000</text></g><g clip-path="url(#clip13)"><text fill="#595959" fill-opacity="1" font-family="Arial,Arial_MSFontService,sans-serif" font-style="normal" font-variant="normal" font-weight="400" font-stretch="normal" font-size="41" text-anchor="start" direction="ltr" writing-mode="lr-tb" unicode-bidi="normal" text-decoration="none" transform="matrix(1 0 0 1 1763.85 918)">100000</text></g><g clip-path="url(#clip14)"><text fill="#595959" fill-opacity="1" font-family="Arial,Arial_MSFontService,sans-serif" font-style="normal" font-variant="normal" font-weight="400" font-stretch="normal" font-size="41" text-anchor="start" direction="ltr" writing-mode="lr-tb" unicode-bidi="normal" text-decoration="none" transform="matrix(1 0 0 1 1763.85 756)">120000</text></g><g clip-path="url(#clip15)"><text fill="#595959" fill-opacity="1" font-family="Arial,Arial_MSFontService,sans-serif" font-style="normal" font-variant="normal" font-weight="400" font-stretch="normal" font-size="37" text-anchor="start" direction="ltr" writing-mode="lr-tb" unicode-bidi="normal" text-decoration="none" transform="matrix(1 0 0 1 2225.28 1772)">BEFORE</text></g><g clip-path="url(#clip16)"><text fill="#595959" fill-opacity="1" font-family="Arial,Arial_MSFontService,sans-serif" font-style="normal" font-variant="normal" font-weight="400" font-stretch="normal" font-size="37" text-anchor="start" direction="ltr" writing-mode="lr-tb" unicode-bidi="normal" text-decoration="none" transform="matrix(1 0 0 1 3003.7 1772)">AFTER</text></g><g clip-path="url(#clip17)"><text fill="#595959" fill-opacity="1" font-family="Arial,Arial_MSFontService,sans-serif" font-style="normal" font-variant="normal" font-weight="400" font-stretch="normal" font-size="41" text-anchor="start" direction="ltr" writing-mode="lr-tb" unicode-bidi="normal" text-decoration="none" transform="matrix(6.12323e-17 -1 1 6.12323e-17 1741.71 1399)">operations/second</text></g><g clip-path="url(#clip18)"><text fill="#595959" fill-opacity="1" font-family="Arial,Arial_MSFontService,sans-serif" font-style="normal" font-variant="normal" font-weight="700" font-stretch="normal" font-size="73" text-anchor="start" direction="ltr" writing-mode="lr-tb" unicode-bidi="normal" text-decoration="none" transform="matrix(1 0 0 1 1932.28 587)">Performance of instance initializations of classes with </text></g><g clip-path="url(#clip19)"><text fill="#595959" fill-opacity="1" font-family="Arial,Arial_MSFontService,sans-serif" font-style="normal" font-variant="normal" font-weight="700" font-stretch="normal" font-size="73" text-anchor="start" direction="ltr" writing-mode="lr-tb" unicode-bidi="normal" text-decoration="none" transform="matrix(1 0 0 1 2264.57 671)">different methods (higher is better)</text></g><g clip-path="url(#clip20)"><rect x="3529" y="1132" width="21" height="21" fill="#4472C4" fill-opacity="1"/></g><g clip-path="url(#clip21)"><text fill="#595959" fill-opacity="1" font-family="Arial,Arial_MSFontService,sans-serif" font-style="normal" font-variant="normal" font-weight="400" font-stretch="normal" font-size="41" text-anchor="start" direction="ltr" writing-mode="lr-tb" unicode-bidi="normal" text-decoration="none" transform="matrix(1 0 0 1 3558.18 1154)">Public method, optimized</text></g><g clip-path="url(#clip22)"><rect x="3529" y="1205" width="21" height="21.0004" fill="#ED7D31" fill-opacity="1"/></g><g clip-path="url(#clip23)"><text fill="#595959" fill-opacity="1" font-family="Arial,Arial_MSFontService,sans-serif" font-style="normal" font-variant="normal" font-weight="400" font-stretch="normal" font-size="41" text-anchor="start" direction="ltr" writing-mode="lr-tb" unicode-bidi="normal" text-decoration="none" transform="matrix(1 0 0 1 3558.18 1227)">Private method, optimized</text></g><g clip-path="url(#clip24)"><rect x="3529" y="1278" width="21" height="21" fill="#A5A5A5" fill-opacity="1"/></g><g clip-path="url(#clip25)"><text fill="#595959" fill-opacity="1" font-family="Arial,Arial_MSFontService,sans-serif" font-style="normal" font-variant="normal" font-weight="400" font-stretch="normal" font-size="41" text-anchor="start" direction="ltr" writing-mode="lr-tb" unicode-bidi="normal" text-decoration="none" transform="matrix(1 0 0 1 3558.18 1301)">Public method, interpreted</text></g><g clip-path="url(#clip26)"><rect x="3529" y="1351" width="21" height="21" fill="#FFC000" fill-opacity="1"/></g><g clip-path="url(#clip27)"><text fill="#595959" fill-opacity="1" font-family="Arial,Arial_MSFontService,sans-serif" font-style="normal" font-variant="normal" font-weight="400" font-stretch="normal" font-size="41" text-anchor="start" direction="ltr" writing-mode="lr-tb" unicode-bidi="normal" text-decoration="none" transform="matrix(1 0 0 1 3558.18 1374)">Private method, interpreted</text></g><g clip-path="url(#clip28)"><text fill="#7F7F7F" fill-opacity="1" font-family="Arial,Arial_MSFontService,sans-serif" font-style="normal" font-variant="normal" font-weight="400" font-stretch="normal" font-size="41" text-anchor="start" direction="ltr" writing-mode="lr-tb" unicode-bidi="normal" text-decoration="none" transform="matrix(1 0 0 1 3548.41 1614)">Restuls are generated with </text></g><g clip-path="url(#clip29)"><text fill="#7F7F7F" fill-opacity="1" font-family="Arial,Arial_MSFontService,sans-serif" font-style="normal" font-variant="normal" font-weight="400" font-stretch="normal" font-size="41" text-anchor="start" direction="ltr" writing-mode="lr-tb" unicode-bidi="normal" text-decoration="none" transform="matrix(1 0 0 1 3548.41 1661)">macOS 11.4</text></g><g clip-path="url(#clip30)"><text fill="#7F7F7F" fill-opacity="1" font-family="Arial,Arial_MSFontService,sans-serif" font-style="normal" font-variant="normal" font-weight="400" font-stretch="normal" font-size="41" text-anchor="start" direction="ltr" writing-mode="lr-tb" unicode-bidi="normal" text-decoration="none" transform="matrix(1 0 0 1 3789.12 1661)">on</text></g><g clip-path="url(#clip31)"><text fill="#7F7F7F" fill-opacity="1" font-family="Arial,Arial_MSFontService,sans-serif" font-style="normal" font-variant="normal" font-weight="400" font-stretch="normal" font-size="41" text-anchor="start" direction="ltr" writing-mode="lr-tb" unicode-bidi="normal" text-decoration="none" transform="matrix(1 0 0 1 3846.46 1661)">Intel Core </text></g><g clip-path="url(#clip32)"><text fill="#7F7F7F" fill-opacity="1" font-family="Arial,Arial_MSFontService,sans-serif" font-style="normal" font-variant="normal" font-weight="400" font-stretch="normal" font-size="41" text-anchor="start" direction="ltr" writing-mode="lr-tb" unicode-bidi="normal" text-decoration="none" transform="matrix(1 0 0 1 3548.41 1709)">i9</text></g><g clip-path="url(#clip33)"><text fill="#7F7F7F" fill-opacity="1" font-family="Arial,Arial_MSFontService,sans-serif" font-style="normal" font-variant="normal" font-weight="400" font-stretch="normal" font-size="41" text-anchor="start" direction="ltr" writing-mode="lr-tb" unicode-bidi="normal" text-decoration="none" transform="matrix(1 0 0 1 3580.51 1709)">-</text></g><g clip-path="url(#clip34)"><text fill="#7F7F7F" fill-opacity="1" font-family="Arial,Arial_MSFontService,sans-serif" font-style="normal" font-variant="normal" font-weight="400" font-stretch="normal" font-size="41" text-anchor="start" direction="ltr" writing-mode="lr-tb" unicode-bidi="normal" text-decoration="none" transform="matrix(1 0 0 1 3594.24 1709)">9880H@2.30GHz</text></g></g></svg>

<svg viewBox="0 0 2462 1329" xmlns="http://www.w3.org/2000/svg" overflow="hidden"><defs><clipPath id="a"><path d="M1640 481h2462v1329H1640z"/></clipPath><clipPath id="b"><path d="M1645 483h2457v1327H1645z"/></clipPath><clipPath id="c"><path d="M1936 743h1525v976H1936z"/></clipPath><clipPath id="d"><path d="M1936 743h1525v976H1936z"/></clipPath><clipPath id="e"><path d="M1936 743h1525v976H1936z"/></clipPath><clipPath id="f"><path d="M1936 743h1525v976H1936z"/></clipPath><clipPath id="g"><path d="M1645 483h2457v1327H1645z"/></clipPath><clipPath id="h"><path d="M1645 483h2457v1327H1645z"/></clipPath><clipPath id="i"><path d="M1645 483h2457v1327H1645z"/></clipPath><clipPath id="j"><path d="M1645 483h2457v1327H1645z"/></clipPath><clipPath id="k"><path d="M1645 483h2457v1327H1645z"/></clipPath><clipPath id="l"><path d="M1645 483h2457v1327H1645z"/></clipPath><clipPath id="m"><path d="M1645 483h2457v1327H1645z"/></clipPath><clipPath id="n"><path d="M1645 483h2457v1327H1645z"/></clipPath><clipPath id="o"><path d="M1645 483h2457v1327H1645z"/></clipPath><clipPath id="p"><path d="M1645 483h2457v1327H1645z"/></clipPath><clipPath id="q"><path d="M1645 483h2457v1327H1645z"/></clipPath><clipPath id="r"><path d="M1645 483h2457v1327H1645z"/></clipPath><clipPath id="s"><path d="M1645 483h2457v1327H1645z"/></clipPath><clipPath id="t"><path d="M1645 483h2457v1327H1645z"/></clipPath><clipPath id="u"><path d="M1645 483h2457v1327H1645z"/></clipPath><clipPath id="v"><path d="M1645 483h2457v1327H1645z"/></clipPath><clipPath id="w"><path d="M1645 483h2457v1327H1645z"/></clipPath><clipPath id="x"><path d="M1645 483h2457v1327H1645z"/></clipPath><clipPath id="y"><path d="M1645 483h2457v1327H1645z"/></clipPath><clipPath id="z"><path d="M1645 483h2457v1327H1645z"/></clipPath><clipPath id="A"><path d="M1645 483h2457v1327H1645z"/></clipPath><clipPath id="B"><path d="M1645 483h2457v1327H1645z"/></clipPath><clipPath id="C"><path d="M1645 483h2458v1328H1645z"/></clipPath><clipPath id="D"><path d="M1645 483h2458v1328H1645z"/></clipPath><clipPath id="E"><path d="M1645 483h2458v1328H1645z"/></clipPath><clipPath id="F"><path d="M1645 483h2458v1328H1645z"/></clipPath><clipPath id="G"><path d="M1645 483h2458v1328H1645z"/></clipPath><clipPath id="H"><path d="M1645 483h2458v1328H1645z"/></clipPath><clipPath id="I"><path d="M1645 483h2458v1328H1645z"/></clipPath></defs><g clip-path="url(#a)" transform="translate(-1640 -481)"><g clip-path="url(#b)"><path d="M1936.5 1554.55h1521m-1521-162h1521m-1521-162.01h1521m-1521-162h1521m-1521-163.01h1521m-1521-162.03h1521" stroke="#D9D9D9" stroke-width="3.438" stroke-linejoin="round" stroke-miterlimit="10" fill="none"/></g><g clip-path="url(#c)"><path d="M2041.07 870.029h138V1716h-138Zm760.02-50.002h138.01V1716h-138.01Z" fill="#4472C4"/></g><g clip-path="url(#d)"><path d="M2179.07 1243.04h138.01V1716h-138.01Zm760.03-375.011h138V1716h-138Z" fill="#ED7D31"/></g><g clip-path="url(#e)"><path d="M2317.08 1163.04h138V1716h-138Zm760.02-31h139.01V1716H3077.1Z" fill="#A5A5A5"/></g><g clip-path="url(#f)"><path d="M2455.08 1399.05h139V1716h-139Zm761.03-169.01h138V1716h-138Z" fill="#FFC000"/></g><g clip-path="url(#g)"><path d="M1936.5 1716.5v-973" stroke="#D9D9D9" stroke-width="3.438" stroke-linejoin="round" stroke-miterlimit="10" fill="none"/></g><g clip-path="url(#h)"><path d="M1936.5 1716.5h1521" stroke="#D9D9D9" stroke-width="3.438" stroke-linejoin="round" stroke-miterlimit="10" fill="none"/></g><g clip-path="url(#i)"><text fill="#595959" font-family="Arial,Arial_MSFontService,sans-serif" font-weight="400" font-size="41" transform="translate(1878.55 1728)">0</text></g><g clip-path="url(#j)"><text fill="#595959" font-family="Arial,Arial_MSFontService,sans-serif" font-weight="400" font-size="41" transform="translate(1786.79 1566)">20000</text></g><g clip-path="url(#k)"><text fill="#595959" font-family="Arial,Arial_MSFontService,sans-serif" font-weight="400" font-size="41" transform="translate(1786.79 1404)">40000</text></g><g clip-path="url(#l)"><text fill="#595959" font-family="Arial,Arial_MSFontService,sans-serif" font-weight="400" font-size="41" transform="translate(1786.79 1242)">60000</text></g><g clip-path="url(#m)"><text fill="#595959" font-family="Arial,Arial_MSFontService,sans-serif" font-weight="400" font-size="41" transform="translate(1786.79 1080)">80000</text></g><g clip-path="url(#n)"><text fill="#595959" font-family="Arial,Arial_MSFontService,sans-serif" font-weight="400" font-size="41" transform="translate(1763.85 918)">100000</text></g><g clip-path="url(#o)"><text fill="#595959" font-family="Arial,Arial_MSFontService,sans-serif" font-weight="400" font-size="41" transform="translate(1763.85 756)">120000</text></g><g clip-path="url(#p)"><text fill="#595959" font-family="Arial,Arial_MSFontService,sans-serif" font-weight="400" font-size="37" transform="translate(2225.28 1772)">BEFORE</text></g><g clip-path="url(#q)"><text fill="#595959" font-family="Arial,Arial_MSFontService,sans-serif" font-weight="400" font-size="37" transform="translate(3003.7 1772)">AFTER</text></g><g clip-path="url(#r)"><text fill="#595959" font-family="Arial,Arial_MSFontService,sans-serif" font-weight="400" font-size="41" transform="rotate(-90 1570.355 -171.355)">operations/second</text></g><g clip-path="url(#s)"><text fill="#595959" font-family="Arial,Arial_MSFontService,sans-serif" font-weight="700" font-size="73" transform="translate(1932.28 587)">Performance of instance initializations of classes with </text></g><g clip-path="url(#t)"><text fill="#595959" font-family="Arial,Arial_MSFontService,sans-serif" font-weight="700" font-size="73" transform="translate(2264.57 671)">different methods (higher is better)</text></g><g clip-path="url(#u)"><path fill="#4472C4" d="M3529 1132h21v21h-21z"/></g><g clip-path="url(#v)"><text fill="#595959" font-family="Arial,Arial_MSFontService,sans-serif" font-weight="400" font-size="41" transform="translate(3558.18 1154)">Public method, optimized</text></g><g clip-path="url(#w)"><path fill="#ED7D31" d="M3529 1205h21v21h-21z"/></g><g clip-path="url(#x)"><text fill="#595959" font-family="Arial,Arial_MSFontService,sans-serif" font-weight="400" font-size="41" transform="translate(3558.18 1227)">Private method, optimized</text></g><g clip-path="url(#y)"><path fill="#A5A5A5" d="M3529 1278h21v21h-21z"/></g><g clip-path="url(#z)"><text fill="#595959" font-family="Arial,Arial_MSFontService,sans-serif" font-weight="400" font-size="41" transform="translate(3558.18 1301)">Public method, interpreted</text></g><g clip-path="url(#A)"><path fill="#FFC000" d="M3529 1351h21v21h-21z"/></g><g clip-path="url(#B)"><text fill="#595959" font-family="Arial,Arial_MSFontService,sans-serif" font-weight="400" font-size="41" transform="translate(3558.18 1374)">Private method, interpreted</text></g><g clip-path="url(#C)"><text fill="#7F7F7F" font-family="Arial,Arial_MSFontService,sans-serif" font-weight="400" font-size="41" transform="translate(3548.41 1614)">Restuls are generated with </text></g><g clip-path="url(#D)"><text fill="#7F7F7F" font-family="Arial,Arial_MSFontService,sans-serif" font-weight="400" font-size="41" transform="translate(3548.41 1661)">macOS 11.4</text></g><g clip-path="url(#E)"><text fill="#7F7F7F" font-family="Arial,Arial_MSFontService,sans-serif" font-weight="400" font-size="41" transform="translate(3789.12 1661)">on</text></g><g clip-path="url(#F)"><text fill="#7F7F7F" font-family="Arial,Arial_MSFontService,sans-serif" font-weight="400" font-size="41" transform="translate(3846.46 1661)">Intel Core </text></g><g clip-path="url(#G)"><text fill="#7F7F7F" font-family="Arial,Arial_MSFontService,sans-serif" font-weight="400" font-size="41" transform="translate(3548.41 1709)">i9</text></g><g clip-path="url(#H)"><text fill="#7F7F7F" font-family="Arial,Arial_MSFontService,sans-serif" font-weight="400" font-size="41" transform="translate(3580.51 1709)">-</text></g><g clip-path="url(#I)"><text fill="#7F7F7F" font-family="Arial,Arial_MSFontService,sans-serif" font-weight="400" font-size="41" transform="translate(3594.24 1709)">9880H@2.30GHz</text></g></g></svg>
